!!!ONB: MCCC : IJH0429_02 : Extracted Monophonic Melody
!!!COM: Haydn, Joseph
!!!OPR: String Quartet in D major
!!!OMV: 2
!!!SCT: Hob.III:42 ; Op.33 No.6
!!!ODT: 1781///
**kern
*thru
*k[b-]
*d:
*clefF
*M4/4
1aa
=1
1aa
=2
1aa
=3
1aa
=4
2aa[
8aa][
8aa]
8aa
8aa
=5
2aa[
16aa]
16ddd
16ccc
16bb-
16aa
16gg
16ff#
16gg
=6
8r
8ff
8ff
8ff
8.ff
32gg
32ff
8ee
8dd
=7
4..dd
32ee
32dd
16.cc#
32dd
16.b
32cc#
16.a
32b
16.g#
32b
=8
4..a
16g#
8.a
16g#
16.a
32g#
16.a
32g#
=9
4..a[
32a]
32b-
4..b-
32a
32b-
=10
2cc[
16cc]
16aa
16gg
16ff
16ee
16ff
16ee
16ff
=11
4..ff
32gg
32ff
8ee
8ee
16.ee
32gg
16.ff
32aa
=12
2gg[
16gg]
16ee
16bb-
16gg
8.ddd
16ccc
=13
4.ccc
8bb-
4aa
4ccc
=14
2fff
16fff
16eee
16fff
16eee
16fff
16eee
16ddd
16ccc#
=15
2ddd[
16ddd]
16ccc#
16ddd
16aa
16bb-
16aa
16bb-
16ff#
=16
4gg[
16gg]
16aa
16bb-
16ccc
8ddd
8eee
8fff
16aa
16ff
=17
1ccc
=18
1ccc
=19
1ccc[
=20
8ccc]
8eee-
8eee-
8eee-
8eee-
8ggg
8fff
8eee-
=21
4ddd[
16ddd]
16ccc#
16ddd
16ccc#
16ddd
16eee
16fff
16ccc#
16ddd
16aa
16bb-
16gg
=22
4ff[
16ff]
16ccc
16bb-
16aa
2gg
=23
1ff[
=24
2ff]
2ee
=25
2ee-[
8ee-]
8gg
8ff
8ee-
=26
2ee-
[2dd
=27
8dd]
8gg
8gg
8gg
8gg
8bb-
8gg
8ee-
=28
2dd
2cc#
=29
8r
8dd
8dd
8dd
8dd
8ff
8ee
8dd
=30
1aa
=31
1aa
=32
1aa
=33
1aa
=34
1aa
=35
2aa[
8aa][
8aa]
8aa
8aa
=36
2aa[
16aa]
16ddd
16ccc
16bb-
16aa
16gg
16ff#
16gg
=37
8r
8ff
8ff
8ff
8.ff
32gg
32ff
8ee
8dd
=38
4..dd
32ee
32dd
16.cc#
32dd
16.b
32cc#
16.a
32b
16.g#
32b
=39
4..a
16g#
8.a
16g#
16.a
32g#
16.a
32g#
=40
4..a
16g#
16.a
32g#
16.a
32g#
16.a
32b-
16.cc
32cc
=41
2cc
2b-
=42
16.a
32b
16.cc#
32dd
16.ee
32ff
16.gg
32ee
2ff[
=43
8ff]
8ddd
8ddd
8ddd
8ddd
8ff
8ff
8ff
=44
2ff
2ee
=45
[1dd
=46
1dd_
=47
4..dd]
16cc#
8.dd
16cc#
8.dd
16cc#
=48
[1dd
=49
1dd]
==
*-
